images/footer/DESIGNO.svg

<svg width="154" height="22" viewBox="0 0 154 22" fill="none" xmlns="http://www.w3.org/2000/svg">
<path d="M0.7 21V1.2H6.136C7.544 1.2 8.852 1.452 10.06 1.956C11.268 2.46 12.324 3.164 13.228 4.068C14.14 4.972 14.848 6.024 15.352 7.224C15.864 8.424 16.12 9.72 16.12 11.112C16.12 12.512 15.868 13.812 15.364 15.012C14.86 16.204 14.152 17.252 13.24 18.156C12.336 19.052 11.276 19.752 10.06 20.256C8.852 20.752 7.544 21 6.136 21H0.7ZM4.588 17.52H5.704C6.6 17.52 7.428 17.36 8.188 17.04C8.948 16.72 9.608 16.272 10.168 15.696C10.728 15.12 11.164 14.444 11.476 13.668C11.788 12.884 11.944 12.028 11.944 11.1C11.944 10.18 11.788 9.332 11.476 8.556C11.164 7.772 10.728 7.092 10.168 6.516C9.608 5.932 8.948 5.48 8.188 5.16C7.428 4.84 6.6 4.68 5.704 4.68H4.588V17.52ZM25.0359 21V1.2H36.0519V4.608H28.9239V9.372H35.7639V12.78H28.9239V17.592H36.0519V21H25.0359ZM50.9694 21.384C50.0494 21.384 49.2014 21.28 48.4254 21.072C47.6494 20.872 46.9534 20.62 46.3374 20.316C45.7294 20.004 45.2054 19.684 44.7654 19.356C44.3254 19.028 43.9774 18.74 43.7214 18.492L45.7134 15.276C45.9774 15.508 46.2934 15.768 46.6614 16.056C47.0294 16.344 47.4414 16.62 47.8974 16.884C48.3534 17.14 48.8454 17.356 49.3734 17.532C49.9094 17.7 50.4774 17.784 51.0774 17.784C51.6374 17.784 52.1294 17.696 52.5534 17.52C52.9854 17.344 53.3254 17.084 53.5734 16.74C53.8214 16.388 53.9454 15.952 53.9454 15.432C53.9454 14.96 53.8454 14.56 53.6454 14.232C53.4454 13.896 53.1494 13.596 52.7574 13.332C52.3734 13.06 51.8974 12.796 51.3294 12.54C50.7694 12.276 50.1294 11.988 49.4094 11.676C48.8734 11.436 48.3614 11.164 47.8734 10.86C47.3934 10.548 46.9654 10.188 46.5894 9.78C46.2134 9.372 45.9134 8.912 45.6894 8.4C45.4734 7.88 45.3654 7.3 45.3654 6.66C45.3654 5.9 45.5174 5.172 45.8214 4.476C46.1254 3.78 46.5574 3.16 47.1174 2.616C47.6854 2.072 48.3574 1.64 49.1334 1.32C49.9174 0.999999 50.7894 0.839999 51.7494 0.839999C52.4694 0.839999 53.1894 0.935999 53.9094 1.128C54.6294 1.32 55.3014 1.572 55.9254 1.884C56.5494 2.196 57.0774 2.536 57.5094 2.904L55.8894 5.952C55.5454 5.656 55.1534 5.392 54.7134 5.16C54.2814 4.92 53.8174 4.728 53.3214 4.584C52.8334 4.44 52.3374 4.368 51.8334 4.368C51.2654 4.368 50.7814 4.468 50.3814 4.668C49.9894 4.868 49.6854 5.136 49.4694 5.472C49.2614 5.8 49.1574 6.168 49.1574 6.576C49.1574 6.912 49.2254 7.2 49.3614 7.44C49.5054 7.672 49.7054 7.876 49.9614 8.052C50.2174 8.22 50.5254 8.384 50.8854 8.544C51.2454 8.696 51.6414 8.86 52.0734 9.036C53.0014 9.428 53.8414 9.816 54.5934 10.2C55.3454 10.584 55.9894 11.012 56.5254 11.484C57.0614 11.948 57.4694 12.492 57.7494 13.116C58.0374 13.74 58.1814 14.484 58.1814 15.348C58.1814 16.612 57.8774 17.696 57.2694 18.6C56.6694 19.504 55.8294 20.196 54.7494 20.676C53.6694 21.148 52.4094 21.384 50.9694 21.384ZM67.1688 21V1.2H71.0568V21H67.1688ZM89.7534 21.384C88.3934 21.384 87.1254 21.124 85.9494 20.604C84.7734 20.084 83.7454 19.36 82.8654 18.432C81.9854 17.496 81.2974 16.404 80.8014 15.156C80.3054 13.908 80.0574 12.556 80.0574 11.1C80.0574 9.708 80.2894 8.396 80.7534 7.164C81.2174 5.924 81.8854 4.832 82.7574 3.888C83.6294 2.936 84.6814 2.192 85.9134 1.656C87.1454 1.112 88.5254 0.839999 90.0534 0.839999C90.9174 0.839999 91.7854 0.935999 92.6574 1.128C93.5374 1.32 94.3814 1.604 95.1894 1.98C95.9974 2.348 96.7254 2.8 97.3734 3.336L95.5494 6.348C94.8534 5.7 94.0094 5.2 93.0174 4.848C92.0334 4.488 91.0614 4.308 90.1014 4.308C89.1574 4.308 88.3214 4.476 87.5934 4.812C86.8734 5.14 86.2654 5.604 85.7694 6.204C85.2734 6.804 84.8974 7.508 84.6414 8.316C84.3854 9.116 84.2574 9.988 84.2574 10.932C84.2574 11.964 84.4014 12.9 84.6894 13.74C84.9774 14.58 85.3774 15.304 85.8894 15.912C86.4094 16.52 87.0134 16.988 87.7014 17.316C88.3974 17.644 89.1454 17.808 89.9454 17.808C90.5854 17.808 91.2014 17.704 91.7934 17.496C92.3934 17.28 92.9254 16.98 93.3894 16.596C93.8534 16.212 94.2214 15.76 94.4934 15.24C94.7654 14.72 94.9014 14.152 94.9014 13.536V13.236H89.7054V10.224H98.8614V13.224C98.8614 14.432 98.6094 15.536 98.1054 16.536C97.6094 17.528 96.9294 18.388 96.0654 19.116C95.2014 19.836 94.2254 20.396 93.1374 20.796C92.0494 21.188 90.9214 21.384 89.7534 21.384ZM107.778 21V1.2H111.666L120.198 14.52V1.2H124.086V21H120.198L111.666 7.68V21H107.778ZM143.025 21.384C141.641 21.384 140.345 21.12 139.137 20.592C137.929 20.064 136.869 19.332 135.957 18.396C135.045 17.452 134.329 16.36 133.809 15.12C133.297 13.872 133.041 12.536 133.041 11.112C133.041 9.688 133.297 8.356 133.809 7.116C134.329 5.868 135.045 4.776 135.957 3.84C136.869 2.896 137.929 2.16 139.137 1.632C140.345 1.104 141.641 0.839999 143.025 0.839999C144.409 0.839999 145.705 1.104 146.913 1.632C148.121 2.16 149.181 2.896 150.093 3.84C151.005 4.776 151.717 5.868 152.229 7.116C152.749 8.356 153.009 9.688 153.009 11.112C153.009 12.536 152.749 13.872 152.229 15.12C151.717 16.36 151.005 17.452 150.093 18.396C149.181 19.332 148.121 20.064 146.913 20.592C145.705 21.12 144.409 21.384 143.025 21.384ZM143.013 17.64C143.861 17.64 144.637 17.48 145.341 17.16C146.045 16.84 146.657 16.388 147.177 15.804C147.697 15.22 148.101 14.532 148.389 13.74C148.677 12.94 148.821 12.064 148.821 11.112C148.821 10.16 148.677 9.288 148.389 8.496C148.101 7.696 147.697 7.004 147.177 6.42C146.657 5.836 146.045 5.384 145.341 5.064C144.637 4.744 143.861 4.584 143.013 4.584C142.181 4.584 141.409 4.744 140.697 5.064C139.993 5.384 139.381 5.836 138.861 6.42C138.341 7.004 137.937 7.696 137.649 8.496C137.369 9.288 137.229 10.16 137.229 11.112C137.229 12.064 137.369 12.94 137.649 13.74C137.937 14.532 138.341 15.22 138.861 15.804C139.381 16.388 139.993 16.84 140.697 17.16C141.409 17.48 142.181 17.64 143.013 17.64Z" fill="white"/>
</svg>

<svg width="154" height="22" fill="none" xmlns="http://www.w3.org/2000/svg"><path d="M.7 21V1.2h5.436c1.408 0 2.716.252 3.924.756a9.73 9.73 0 0 1 3.168 2.112 9.67 9.67 0 0 1 2.124 3.156c.512 1.2.768 2.496.768 3.888 0 1.4-.252 2.7-.756 3.9a9.704 9.704 0 0 1-2.124 3.144 9.793 9.793 0 0 1-3.18 2.1c-1.208.496-2.516.744-3.924.744H.7Zm3.888-3.48h1.116c.896 0 1.724-.16 2.484-.48a5.95 5.95 0 0 0 1.98-1.344 6.186 6.186 0 0 0 1.308-2.028c.312-.784.468-1.64.468-2.568 0-.92-.156-1.768-.468-2.544a6.157 6.157 0 0 0-1.308-2.04 5.865 5.865 0 0 0-1.98-1.356 6.336 6.336 0 0 0-2.484-.48H4.588v12.84ZM25.036 21V1.2h11.016v3.408h-7.128v4.764h6.84v3.408h-6.84v4.812h7.128V21H25.036Zm25.933.384c-.92 0-1.768-.104-2.544-.312-.776-.2-1.472-.452-2.088-.756a11.159 11.159 0 0 1-2.616-1.824l1.992-3.216c.264.232.58.492.948.78.368.288.78.564 1.236.828.456.256.948.472 1.476.648a5.665 5.665 0 0 0 1.704.252c.56 0 1.052-.088 1.476-.264a2.286 2.286 0 0 0 1.02-.78c.248-.352.372-.788.372-1.308 0-.472-.1-.872-.3-1.2-.2-.336-.496-.636-.888-.9a8.587 8.587 0 0 0-1.428-.792c-.56-.264-1.2-.552-1.92-.864a12.773 12.773 0 0 1-1.536-.816 6.709 6.709 0 0 1-1.284-1.08 4.948 4.948 0 0 1-.9-1.38 4.495 4.495 0 0 1-.324-1.74 5.4 5.4 0 0 1 .456-2.184 5.825 5.825 0 0 1 1.296-1.86 6.418 6.418 0 0 1 2.016-1.296C49.917 1 50.79.84 51.75.84c.72 0 1.44.096 2.16.288.72.192 1.392.444 2.016.756a7.84 7.84 0 0 1 1.584 1.02l-1.62 3.048a6.296 6.296 0 0 0-1.176-.792 6.704 6.704 0 0 0-1.392-.576 5.231 5.231 0 0 0-1.488-.216c-.568 0-1.052.1-1.452.3-.392.2-.696.468-.912.804a2.018 2.018 0 0 0-.312 1.104c0 .336.068.624.204.864.144.232.344.436.6.612.256.168.564.332.924.492.36.152.756.316 1.188.492.928.392 1.768.78 2.52 1.164a9.321 9.321 0 0 1 1.932 1.284 4.668 4.668 0 0 1 1.224 1.632c.288.624.432 1.368.432 2.232 0 1.264-.304 2.348-.912 3.252-.6.904-1.44 1.596-2.52 2.076-1.08.472-2.34.708-3.78.708ZM67.17 21V1.2h3.888V21h-3.888Zm22.584.384c-1.36 0-2.628-.26-3.804-.78a9.505 9.505 0 0 1-3.084-2.172 10.265 10.265 0 0 1-2.064-3.276c-.496-1.248-.744-2.6-.744-4.056 0-1.392.232-2.704.696-3.936a9.877 9.877 0 0 1 2.004-3.276 9.199 9.199 0 0 1 3.156-2.232c1.232-.544 2.612-.816 4.14-.816.864 0 1.732.096 2.604.288.88.192 1.724.476 2.532.852a9.74 9.74 0 0 1 2.184 1.356L95.55 6.348c-.696-.648-1.54-1.148-2.532-1.5a8.447 8.447 0 0 0-2.916-.54c-.944 0-1.78.168-2.508.504a5.05 5.05 0 0 0-1.824 1.392 6.226 6.226 0 0 0-1.128 2.112 8.543 8.543 0 0 0-.384 2.616c0 1.032.144 1.968.432 2.808.288.84.688 1.564 1.2 2.172a5.462 5.462 0 0 0 1.812 1.404 5.198 5.198 0 0 0 2.244.492c.64 0 1.256-.104 1.848-.312a5.29 5.29 0 0 0 1.596-.9 4.385 4.385 0 0 0 1.104-1.356 3.62 3.62 0 0 0 .408-1.704v-.3h-5.196v-3.012h9.156v3c0 1.208-.252 2.312-.756 3.312a8.055 8.055 0 0 1-2.04 2.58 9.836 9.836 0 0 1-2.928 1.68 9.908 9.908 0 0 1-3.384.588ZM107.778 21V1.2h3.888l8.532 13.32V1.2h3.888V21h-3.888l-8.532-13.32V21h-3.888Zm35.247.384a9.6 9.6 0 0 1-3.888-.792 9.973 9.973 0 0 1-3.18-2.196 10.528 10.528 0 0 1-2.148-3.276 10.456 10.456 0 0 1-.768-4.008c0-1.424.256-2.756.768-3.996a10.346 10.346 0 0 1 2.148-3.276 9.881 9.881 0 0 1 3.18-2.208 9.6 9.6 0 0 1 3.888-.792 9.6 9.6 0 0 1 3.888.792 9.881 9.881 0 0 1 3.18 2.208 10.18 10.18 0 0 1 2.136 3.276c.52 1.24.78 2.572.78 3.996s-.26 2.76-.78 4.008a10.356 10.356 0 0 1-2.136 3.276 9.973 9.973 0 0 1-3.18 2.196 9.6 9.6 0 0 1-3.888.792Zm-.012-3.744c.848 0 1.624-.16 2.328-.48a5.459 5.459 0 0 0 1.836-1.356 6.308 6.308 0 0 0 1.212-2.064c.288-.8.432-1.676.432-2.628 0-.952-.144-1.824-.432-2.616a6.284 6.284 0 0 0-1.212-2.076 5.459 5.459 0 0 0-1.836-1.356c-.704-.32-1.48-.48-2.328-.48-.832 0-1.604.16-2.316.48a5.459 5.459 0 0 0-1.836 1.356 6.284 6.284 0 0 0-1.212 2.076c-.28.792-.42 1.664-.42 2.616 0 .952.14 1.828.42 2.628.288.792.692 1.48 1.212 2.064a5.459 5.459 0 0 0 1.836 1.356c.712.32 1.484.48 2.316.48Z" fill="#fff"/></svg>
